Targets/Lava/Images.xcassets/LogoRounded.imageset/wr-round-yellow.svg

<?xml version="1.0" encoding="utf-8"?>
<!-- Generator: Adobe Illustrator 26.5.0, SVG Export Plug-In . SVG Version: 6.00 Build 0)  -->
<svg version="1.1"
	 id="svg8" xmlns:sodipodi="http://sodipodi.sourceforge.net/DTD/sodipodi-0.dtd" xmlns:dc="http://purl.org/dc/elements/1.1/" xmlns:inkscape="http://www.inkscape.org/namespaces/inkscape" xmlns:cc="http://creativecommons.org/ns#" xmlns:rdf="http://www.w3.org/1999/02/22-rdf-syntax-ns#" xmlns:svg="http://www.w3.org/2000/svg" sodipodi:docname="wr-square.svg"
	 xmlns="http://www.w3.org/2000/svg" xmlns:xlink="http://www.w3.org/1999/xlink" x="0px" y="0px" viewBox="0 0 2048 2048"
	 style="enable-background:new 0 0 2048 2048;" xml:space="preserve">
<style type="text/css">
	.st0{display:none;}
	.st1{display:inline;fill:url(#path945_00000153692526920351347640000006505453710288784005_);}
	.st2{fill-rule:evenodd;clip-rule:evenodd;fill:url(#SVGID_1_);}
	.st3{fill:#1B2347;stroke:#1B2347;stroke-width:2.0564;}
	.st4{fill:#1B2347;stroke:#1B2347;stroke-width:2.0597;stroke-miterlimit:15.1181;}
	.st5{fill:#FFFFFF;}
	.st6{fill:#D4DBFA;}
</style>
<sodipodi:namedview  bordercolor="#666666" borderopacity="1.0" id="base" inkscape:current-layer="layer6" inkscape:cx="1449.7386" inkscape:cy="1079.3196" inkscape:document-rotation="0" inkscape:document-units="px" inkscape:guide-bbox="true" inkscape:object-nodes="false" inkscape:pageopacity="0.0" inkscape:pageshadow="2" inkscape:snap-others="false" inkscape:window-height="1017" inkscape:window-maximized="1" inkscape:window-width="1920" inkscape:window-x="-8" inkscape:window-y="-8" inkscape:zoom="0.2798316" objecttolerance="10000" pagecolor="#ffffff" showgrid="false" showguides="true" units="px">

		<sodipodi:guide  id="guide1539" inkscape:color="rgb(0,0,255)" inkscape:label="" inkscape:locked="false" orientation="0,1" position="-251.50543,270.93333">
		</sodipodi:guide>

		<sodipodi:guide  id="guide1618" inkscape:color="rgb(0,0,255)" inkscape:label="" inkscape:locked="false" orientation="-1,0" position="270.93333,270.93333">
		</sodipodi:guide>
</sodipodi:namedview>
<g id="layer1" inkscape:groupmode="layer" inkscape:label="Ebene 1" sodipodi:insensitive="true" class="st0">

</g>

<g id="layer6" inkscape:groupmode="layer" inkscape:label="Circle 1">
	<linearGradient id="SVGID_1_" gradientUnits="userSpaceOnUse" x1="1581.463" y1="1020.5261" x2="344.6427" y2="1027.0085">
		<stop  offset="0" style="stop-color:#FAFAC5"/>
		<stop  offset="1" style="stop-color:#FAFAAF"/>
	</linearGradient>
	<path class="st2" d="M2048,1024c0,492.2-347.3,903.3-810.2,1001.7c-52.1,11.1-105.6,18.2-160.3,21H970.6
		c-300-15.4-565.9-160-743.2-379.2C85.2,1491.6,0,1267.8,0,1024C0,458.5,458.5,0,1024,0S2048,458.5,2048,1024z"/>
</g>
<g id="layer2" inkscape:groupmode="layer" inkscape:label="Hand">
	<path class="st3" d="M970.6,2046.6c-300-15.4-565.9-160-743.2-379.2c80.2,29,166.3,54.6,239.7,63.8
		c204.9,25.7,254.1-30.1,254.1-30.1s41.5-43.7,27.9-137c-13.6-93.3,7.7-136.8,7.7-136.8s38.6-67.8-8.4-132.4
		c-17.3-23.8-29.7-43.2-38.5-58.4c-15.1-26.1-19.5-39.3-19.5-39.3s69.8,13.8,107.8,39.3c11.1,7.5,19.5,15.9,22.6,25.3
		c13.6,41.5-4.4,57.7,13.2,89.2c17.6,31.6,42.6,57.3,59.9,65c17.3,7.7,36.4,5.5,36.4,5.5s48.9-116.5,71.5-139.6
		c15-15.3,28.8-34.8,45.3-45.5c8.4-5.5,17.6-8.6,27.9-7.7c11.3,1,17,4,19.6,7.7c4.4,6.3-0.5,14.6-2.4,17.2
		c-3.1,4.1-41.3,44.1-48.6,71.7c-7.3,27.5-9.4,23.4-13,42.1c-3.6,18.4-9.2,44.6-9.3,45.4c1-1.4,63-88.4,82.6-104.9
		c14.5-12.2,41.5-50.1,76.8-71.4c12.8-7.8,26.8-13.4,41.6-14.8c32.2-3,35.6,6.3,32.8,14.8c-1.3,4-4.1,7.8-5.9,10
		c1.5-1.7,5-5.7,9.1-10c7-7.2,15.9-15.3,20.5-15.3c7.2,0,40.8-0.4,43.3,15.3c0.4,2.5,0.1,5.3-1.3,8.6c-9.9,24.4-37.9,36.4-54.5,47.3
		c-16.6,10.9-101.3,86.7-124.6,123.6c-23.4,36.9-44.1,88.8-73.2,114.2c-29.1,25.5-41.5,23.9-67.5,39.5c-26,15.6-80,55.1-90.9,113.2
		c-10.9,58.2-16.1,137.1,62.8,195.8c38.8,28.8,122.6,85.9,265,146.8c-52.1,11.1-105.6,18.2-160.3,21"/>
</g>
<g id="layer3" inkscape:groupmode="layer" inkscape:label="rOBOT">
	<path id="rect861" class="st4" d="M670.2,813.6h683.6c122.3,0,221.5,94.7,221.5,211.5v0c0,116.8-99.2,211.5-221.5,211.5H670.2
		c-122.3,0-221.5-94.7-221.5-211.5v0C448.7,908.3,547.9,813.6,670.2,813.6z"/>
</g>
<ellipse id="path863" class="st5" cx="686.3" cy="1030.2" rx="116.8" ry="119.5"/>
<circle id="path863-0" class="st6" cx="686.3" cy="1030.2" r="81.6"/>
<ellipse id="path863-6" class="st5" cx="1350.9" cy="1030.2" rx="116.8" ry="119.5"/>
<circle id="path863-0-1" class="st6" cx="1350.9" cy="1030.2" r="81.6"/>
</svg>

<?xml version="1.0" encoding="UTF-8" standalone="no"?>
<!DOCTYPE svg PUBLIC "-//W3C//DTD SVG 1.1//EN" "http://www.w3.org/Graphics/SVG/1.1/DTD/svg11.dtd">
<svg width="100%" height="100%" viewBox="0 0 280 280" version="1.1" xmlns="http://www.w3.org/2000/svg" xmlns:xlink="http://www.w3.org/1999/xlink" xml:space="preserve" xmlns:serif="http://www.serif.com/" style="fill-rule:evenodd;clip-rule:evenodd;">
    <g transform="matrix(1,0,0,1,-881.929,-886.427)">
        <g id="Circle-1" serif:id="Circle 1">
            <g>
                <g transform="matrix(0.136719,0,0,0.136719,881.929,886.427)">
                    <path d="M2048,1024C2048,1516.2 1700.7,1927.3 1237.8,2025.7C1185.7,2036.8 1132.2,2043.9 1077.5,2046.7L970.6,2046.7C670.6,2031.3 404.7,1886.7 227.4,1667.5C85.2,1491.6 0,1267.8 0,1024C0,458.5 458.5,0 1024,0C1589.5,0 2048,458.5 2048,1024Z" style="fill:url(#_Linear1);"/>
                </g>
                <g transform="matrix(0.136719,0,0,0.136719,881.929,886.427)">
                    <path d="M970.6,2046.6C670.6,2031.2 404.7,1886.6 227.4,1667.4C307.6,1696.4 393.7,1722 467.1,1731.2C672,1756.9 721.2,1701.1 721.2,1701.1C721.2,1701.1 762.7,1657.4 749.1,1564.1C735.5,1470.8 756.8,1427.3 756.8,1427.3C756.8,1427.3 795.4,1359.5 748.4,1294.9C731.1,1271.1 718.7,1251.7 709.9,1236.5C694.8,1210.4 690.4,1197.2 690.4,1197.2C690.4,1197.2 760.2,1211 798.2,1236.5C809.3,1244 817.7,1252.4 820.8,1261.8C834.4,1303.3 816.4,1319.5 834,1351C851.6,1382.6 876.6,1408.3 893.9,1416C911.2,1423.7 930.3,1421.5 930.3,1421.5C930.3,1421.5 979.2,1305 1001.8,1281.9C1016.8,1266.6 1030.6,1247.1 1047.1,1236.4C1055.5,1230.9 1064.7,1227.8 1075,1228.7C1086.3,1229.7 1092,1232.7 1094.6,1236.4C1099,1242.7 1094.1,1251 1092.2,1253.6C1089.1,1257.7 1050.9,1297.7 1043.6,1325.3C1036.3,1352.8 1034.2,1348.7 1030.6,1367.4C1027,1385.8 1021.4,1412 1021.3,1412.8C1022.3,1411.4 1084.3,1324.4 1103.9,1307.9C1118.4,1295.7 1145.4,1257.8 1180.7,1236.5C1193.5,1228.7 1207.5,1223.1 1222.3,1221.7C1254.5,1218.7 1257.9,1228 1255.1,1236.5C1253.8,1240.5 1251,1244.3 1249.2,1246.5C1250.7,1244.8 1254.2,1240.8 1258.3,1236.5C1265.3,1229.3 1274.2,1221.2 1278.8,1221.2C1286,1221.2 1319.6,1220.8 1322.1,1236.5C1322.5,1239 1322.2,1241.8 1320.8,1245.1C1310.9,1269.5 1282.9,1281.5 1266.3,1292.4C1249.7,1303.3 1165,1379.1 1141.7,1416C1118.3,1452.9 1097.6,1504.8 1068.5,1530.2C1039.4,1555.7 1027,1554.1 1001,1569.7C975,1585.3 921,1624.8 910.1,1682.9C899.2,1741.1 894,1820 972.9,1878.7C1011.7,1907.5 1095.5,1964.6 1237.9,2025.5C1185.8,2036.6 1132.3,2043.7 1077.6,2046.5" style="fill:rgb(27,35,71);fill-rule:nonzero;stroke:rgb(27,35,71);stroke-width:2.06px;"/>
                </g>
                <g id="rect861" transform="matrix(0.136719,0,0,0.136719,881.929,886.427)">
                    <path d="M670.2,813.6L1353.8,813.6C1476.1,813.6 1575.3,908.3 1575.3,1025.1C1575.3,1141.9 1476.1,1236.6 1353.8,1236.6L670.2,1236.6C547.9,1236.6 448.7,1141.9 448.7,1025.1C448.7,908.3 547.9,813.6 670.2,813.6Z" style="fill:rgb(27,35,71);fill-rule:nonzero;stroke:rgb(27,35,71);stroke-width:2.06px;stroke-miterlimit:15.1181;"/>
                </g>
                <g id="path863" transform="matrix(0.136719,0,0,0.136719,881.929,886.427)">
                    <ellipse cx="686.3" cy="1030.2" rx="116.8" ry="119.5" style="fill:white;"/>
                </g>
                <g id="path863-0" transform="matrix(0.136719,0,0,0.136719,881.929,886.427)">
                    <circle cx="686.3" cy="1030.2" r="81.6" style="fill:rgb(212,219,250);"/>
                </g>
                <g id="path863-6" transform="matrix(0.136719,0,0,0.136719,881.929,886.427)">
                    <ellipse cx="1350.9" cy="1030.2" rx="116.8" ry="119.5" style="fill:white;"/>
                </g>
                <g id="path863-0-1" transform="matrix(0.136719,0,0,0.136719,881.929,886.427)">
                    <circle cx="1350.9" cy="1030.2" r="81.6" style="fill:rgb(212,219,250);"/>
                </g>
            </g>
        </g>
    </g>
    <g id="Hand">
    </g>
    <g id="rOBOT">
    </g>
    <defs>
        <linearGradient id="_Linear1" x1="0" y1="0" x2="1" y2="0" gradientUnits="userSpaceOnUse" gradientTransform="matrix(-1236.82,6.4824,-6.4824,-1236.82,1581.46,1020.53)"><stop offset="0" style="stop-color:rgb(250,250,197);stop-opacity:1"/><stop offset="1" style="stop-color:rgb(250,250,175);stop-opacity:1"/></linearGradient>
    </defs>
</svg>
